app/images/about/team/arrow-join.svg

<svg xmlns="http://www.w3.org/2000/svg" width="15" height="11"><path fill-rule="evenodd" fill="#FFF" d="M8.931 11.007a.627.627 0 00.425-.161l5.434-4.912a.921.921 0 00.05-.049v-.001h.001a.57.57 0 00-.017-.781l-.033-.031L9.356.16a.639.639 0 00-.874.022.57.57 0 00.024.834l4.311 3.897H.631a.604.604 0 00-.617.59c0 .325.276.589.617.589h12.186L8.506 9.99a.57.57 0 00-.024.834.632.632 0 00.449.183z"/></svg>

<svg 
 xmlns="http://www.w3.org/2000/svg"
 xmlns:xlink="http://www.w3.org/1999/xlink"
 width="15px" height="11px">
<path fill-rule="evenodd"  fill="rgb(255, 255, 255)"
 d="M8.931,11.007 C9.084,11.007 9.236,10.955 9.356,10.846 L14.790,5.934 C14.797,5.929 14.803,5.923 14.809,5.917 C14.820,5.906 14.830,5.896 14.840,5.885 L14.840,5.884 L14.841,5.884 C14.930,5.784 14.977,5.663 14.985,5.540 C14.988,5.496 14.986,5.453 14.979,5.410 C14.961,5.299 14.908,5.192 14.824,5.103 C14.813,5.092 14.802,5.082 14.791,5.072 L9.356,0.160 C9.109,-0.064 8.717,-0.055 8.482,0.182 C8.247,0.419 8.258,0.792 8.506,1.016 L12.817,4.913 L0.631,4.913 C0.290,4.913 0.014,5.177 0.014,5.503 C0.014,5.828 0.290,6.092 0.631,6.092 L12.817,6.092 L8.506,9.990 C8.258,10.213 8.247,10.587 8.482,10.824 C8.604,10.946 8.767,11.007 8.931,11.007 Z"/>
</svg>
